tools/download-figma-icons/icons/solid/charging-station.svg

<svg width="24" height="24" viewBox="0 0 24 24" fill="none" xmlns="http://www.w3.org/2000/svg">
<path fill-rule="evenodd" clip-rule="evenodd" d="M10.3953 12.3825L8.14525 16.1325C8.00275 16.3657 7.7545 16.4925 7.50025 16.4925C7.36525 16.4925 7.23775 16.4625 7.11775 16.3875C6.757 16.1782 6.64525 15.7125 6.8545 15.3607L8.42275 12.75H6.75025C6.4795 12.75 6.232 12.6075 6.09775 12.3675C5.96275 12.135 5.97025 11.8425 6.1045 11.6175L8.3545 7.86075C8.572 7.5075 9.03025 7.3875 9.382 7.605C9.74275 7.815 9.8545 8.27325 9.64525 8.6325L8.0695 11.25H9.75025C10.0203 11.25 10.2678 11.3932 10.4028 11.6325C10.537 11.8657 10.5303 12.1575 10.3953 12.3825ZM22.2827 6.9675L17.7827 2.4675C17.4902 2.17575 17.0095 2.17575 16.7177 2.4675C16.4252 2.76 16.4252 3.24075 16.7177 3.5325L18.7502 5.5575V7.59C18.7502 8.7825 19.5902 9.75 20.6252 9.75H21.0002V19.5C21.0002 20.325 20.3245 21 19.5002 21C18.6752 21 18.0002 20.325 18.0002 19.5C18.0002 19.4625 17.9852 19.4325 17.977 19.3958C17.8652 18.195 16.8677 17.2575 15.6452 17.2575H15.0002V2.98575C15.0002 1.3425 13.6577 0 12.0145 0H4.48524C2.84274 0 1.50024 1.3425 1.50024 2.98575V23.25C1.50024 23.6625 1.83774 24 2.25024 24H14.2502C14.662 24 15.0002 23.6625 15.0002 23.25V18.7575H15.6452C16.1177 18.7575 16.5002 19.14 16.5002 19.605C16.5002 19.6432 16.5145 19.68 16.5227 19.7175C16.6345 21.2708 17.917 22.5 19.5002 22.5C21.1577 22.5 22.5002 21.1575 22.5002 19.5V7.5C22.5002 7.29825 22.417 7.11075 22.2827 6.9675Z" fill="black"/>
</svg>

<svg xmlns="http://www.w3.org/2000/svg" width="24" height="24" fill="none" viewBox="0 0 24 24"><path fill="currentColor" fill-rule="evenodd" d="m10.395 12.383-2.25 3.75a.75.75 0 0 1-.645.36.7.7 0 0 1-.382-.105.75.75 0 0 1-.264-1.027l1.569-2.611H6.75a.74.74 0 0 1-.652-.383.75.75 0 0 1 .006-.75l2.25-3.756a.747.747 0 0 1 1.028-.256c.36.21.473.668.263 1.027L8.07 11.25h1.68c.27 0 .518.143.653.383a.75.75 0 0 1-.008.75m11.888-5.415-4.5-4.5a.757.757 0 0 0-1.065 0 .756.756 0 0 0 0 1.065l2.032 2.025V7.59c0 1.193.84 2.16 1.875 2.16H21v9.75c0 .825-.675 1.5-1.5 1.5s-1.5-.675-1.5-1.5c0-.038-.015-.067-.023-.104a2.347 2.347 0 0 0-2.332-2.139H15V2.986A2.993 2.993 0 0 0 12.015 0h-7.53A2.993 2.993 0 0 0 1.5 2.986V23.25c0 .413.338.75.75.75h12c.412 0 .75-.337.75-.75v-4.492h.645c.473 0 .855.382.855.847 0 .038.015.075.023.113A2.99 2.99 0 0 0 19.5 22.5a3 3 0 0 0 3-3v-12a.78.78 0 0 0-.217-.532" clip-rule="evenodd"/></svg>
